dist/img/buy.svg

<svg width="32" height="32" viewBox="0 0 32 32" fill="none" xmlns="http://www.w3.org/2000/svg">
<path d="M27.9475 21.3333H11.1886C10.9105 21.3338 10.6406 21.242 10.423 21.0732C10.2055 20.9044 10.0534 20.6685 9.9917 20.4044L7.16981 8.42585C7.12854 8.25087 7.12829 8.06908 7.16909 7.89399C7.2099 7.71891 7.2907 7.55505 7.40548 7.41459C7.52027 7.27414 7.66609 7.16072 7.83208 7.08277C7.99808 7.00482 8.17998 6.96434 8.36425 6.96436H30.7719C30.9563 6.96398 31.1385 7.00419 31.3048 7.08199C31.4711 7.15979 31.6173 7.27316 31.7323 7.41366C31.8474 7.55416 31.9284 7.71815 31.9693 7.89341C32.0103 8.06867 32.0101 8.25068 31.9688 8.42585L29.142 20.4044C29.0803 20.6681 28.9286 20.9037 28.7116 21.0725C28.4946 21.2412 28.2252 21.3332 27.9475 21.3333ZM12.1641 18.9453H26.972L29.2327 9.35481H9.90265L12.1641 18.9453Z" fill="#F1EDF3"/>
<path d="M13.5867 32.0002C12.6579 32.0002 11.75 31.7318 10.9777 31.2291C10.2054 30.7263 9.60353 30.0117 9.24809 29.1756C8.89266 28.3396 8.79966 27.4196 8.98086 26.532C9.16206 25.6444 9.60932 24.8292 10.2661 24.1893C10.9228 23.5494 11.7596 23.1136 12.6705 22.937C13.5815 22.7605 14.5257 22.8511 15.3838 23.1974C16.2419 23.5437 16.9753 24.1302 17.4913 24.8826C18.0073 25.6351 18.2828 26.5197 18.2828 27.4246C18.2815 28.6378 17.7863 29.8008 16.9059 30.6586C16.0255 31.5164 14.8318 31.9989 13.5867 32.0002ZM13.5867 25.238C13.1426 25.238 12.7085 25.3663 12.3393 25.6067C11.9701 25.8471 11.6823 26.1888 11.5124 26.5885C11.3425 26.9883 11.2981 27.4281 11.3848 27.8525C11.4715 28.2768 11.6854 28.6666 11.9995 28.9725C12.3135 29.2784 12.7136 29.4867 13.1492 29.571C13.5848 29.6553 14.0362 29.6119 14.4464 29.4462C14.8566 29.2805 15.2072 29 15.4538 28.6402C15.7004 28.2803 15.8319 27.8573 15.8318 27.4246C15.8311 26.8448 15.5944 26.2888 15.1734 25.8789C14.7525 25.4689 14.1819 25.2384 13.5867 25.238Z" fill="#F1EDF3"/>
<path d="M25.5489 32.0002C24.6201 32.0002 23.7121 31.7318 22.9399 31.2291C22.1676 30.7263 21.5657 30.0117 21.2103 29.1756C20.8548 28.3396 20.7618 27.4196 20.943 26.532C21.1242 25.6444 21.5715 24.8292 22.2282 24.1893C22.885 23.5494 23.7217 23.1136 24.6327 22.937C25.5436 22.7605 26.4879 22.8511 27.346 23.1974C28.2041 23.5437 28.9375 24.1302 29.4535 24.8826C29.9695 25.6351 30.2449 26.5197 30.2449 27.4246C30.2436 28.6378 29.7484 29.8008 28.868 30.6586C27.9876 31.5164 26.7939 31.9989 25.5489 32.0002ZM25.5489 25.238C25.1048 25.238 24.6707 25.3663 24.3015 25.6067C23.9322 25.8471 23.6445 26.1888 23.4746 26.5885C23.3047 26.9883 23.2603 27.4281 23.347 27.8525C23.4337 28.2768 23.6476 28.6666 23.9616 28.9725C24.2757 29.2784 24.6758 29.4867 25.1114 29.571C25.5469 29.6553 25.9984 29.6119 26.4086 29.4462C26.8188 29.2805 27.1694 29 27.416 28.6402C27.6626 28.2803 27.7941 27.8573 27.7939 27.4246C27.7933 26.8448 27.5565 26.2888 27.1356 25.8789C26.7147 25.4689 26.144 25.2384 25.5489 25.238Z" fill="#F1EDF3"/>
<path d="M8.36435 9.35244C8.10712 9.35242 7.85641 9.27352 7.64775 9.12694C7.43909 8.98036 7.28306 8.77351 7.20178 8.53572L5.10129 2.38806H1.22549C0.900467 2.38806 0.58876 2.26226 0.358937 2.03834C0.129113 1.81441 0 1.51071 0 1.19403C0 0.877353 0.129113 0.573647 0.358937 0.349723C0.58876 0.125799 0.900467 0 1.22549 0H5.98854C6.24578 2.319e-05 6.49649 0.0789152 6.70515 0.225498C6.91381 0.372082 7.06983 0.578923 7.15112 0.816716L9.53102 7.78109C9.59237 7.96056 9.60908 8.15167 9.57977 8.33866C9.55046 8.52566 9.47597 8.70319 9.36244 8.85664C9.24891 9.01009 9.09958 9.13506 8.92677 9.22126C8.75395 9.30746 8.56259 9.35242 8.36844 9.35244H8.36435Z" fill="#F1EDF3"/>
</svg>

<svg width="32" height="32" fill="none" xmlns="http://www.w3.org/2000/svg"><path d="M27.948 21.333h-16.76a1.25 1.25 0 0 1-.765-.26 1.19 1.19 0 0 1-.431-.669L7.17 8.426a1.164 1.164 0 0 1 .235-1.011 1.23 1.23 0 0 1 .959-.451h22.408c.184 0 .367.04.533.118.166.078.312.191.427.332a1.18 1.18 0 0 1 .237 1.012l-2.827 11.978c-.062.264-.213.5-.43.669a1.25 1.25 0 0 1-.764.26Zm-15.784-2.388h14.808l2.26-9.59H9.903l2.262 9.59ZM13.587 32a4.785 4.785 0 0 1-2.61-.77 4.603 4.603 0 0 1-1.729-2.054 4.466 4.466 0 0 1-.267-2.644 4.54 4.54 0 0 1 1.285-2.343 4.736 4.736 0 0 1 2.405-1.252 4.812 4.812 0 0 1 2.713.26 4.672 4.672 0 0 1 2.107 1.686c.516.752.792 1.637.792 2.542a4.522 4.522 0 0 1-1.377 3.234A4.765 4.765 0 0 1 13.586 32Zm0-6.762c-.444 0-.878.128-1.248.369a2.2 2.2 0 0 0-.827.982c-.17.4-.214.84-.127 1.264.087.424.3.814.614 1.12a2.27 2.27 0 0 0 1.15.598 2.3 2.3 0 0 0 1.297-.125 2.24 2.24 0 0 0 1.008-.806c.246-.36.378-.783.378-1.215a2.16 2.16 0 0 0-.659-1.546c-.42-.41-.991-.64-1.586-.641ZM25.549 32a4.785 4.785 0 0 1-2.61-.77 4.603 4.603 0 0 1-1.729-2.054 4.466 4.466 0 0 1-.267-2.644 4.54 4.54 0 0 1 1.285-2.343 4.736 4.736 0 0 1 2.405-1.252 4.812 4.812 0 0 1 2.713.26 4.672 4.672 0 0 1 2.107 1.686c.517.752.792 1.637.792 2.542a4.522 4.522 0 0 1-1.377 3.234A4.765 4.765 0 0 1 25.548 32Zm0-6.762c-.444 0-.878.128-1.247.369a2.2 2.2 0 0 0-.827.982c-.17.4-.215.84-.128 1.264.087.424.3.814.615 1.12.314.305.714.514 1.15.598a2.3 2.3 0 0 0 1.297-.125c.41-.166.76-.446 1.007-.806.247-.36.378-.783.378-1.215a2.16 2.16 0 0 0-.658-1.546 2.28 2.28 0 0 0-1.587-.641Z" fill="#F1EDF3"/><path d="M8.364 9.352c-.257 0-.508-.078-.716-.225a1.197 1.197 0 0 1-.446-.591l-2.1-6.148H1.224c-.325 0-.636-.126-.866-.35A1.179 1.179 0 0 1 0 1.194C0 .877.13.574.359.35.589.126.9 0 1.225 0H5.99c.257 0 .507.079.716.225.209.147.365.354.446.592l2.38 6.964a1.165 1.165 0 0 1-.169 1.076 1.217 1.217 0 0 1-.435.364 1.252 1.252 0 0 1-.559.131h-.004Z" fill="#F1EDF3"/></svg>
